svg/weather/thunderstorm_fill.svg

<?xml version="1.0" encoding="UTF-8"?>
<svg width="24px" height="24px" viewBox="0 0 24 24" version="1.1" xmlns="http://www.w3.org/2000/svg" xmlns:xlink="http://www.w3.org/1999/xlink">
    <title>thunderstorm_fill</title>
    <g id="Icon" stroke="none" stroke-width="1" fill="none" fill-rule="evenodd">
        <g id="Weather" transform="translate(-1.000000, -240.000000)" fill-rule="nonzero">
            <g id="thunderstorm_fill" transform="translate(1.000000, 240.000000)">
                <path d="M24,0 L24,24 L0,24 L0,0 L24,0 Z M12.5935,23.2578 L12.5819,23.2595 L12.5109,23.295 L12.4919,23.2987 L12.4767,23.295 L12.4057,23.2595 C12.3958,23.2564 12.387,23.259 12.3821,23.2649 L12.378,23.2758 L12.3609,23.7031 L12.3659,23.7235 L12.3769,23.7357 L12.4805,23.8097 L12.4953,23.8136 L12.5071,23.8097 L12.6107,23.7357 L12.6233,23.7197 L12.6267,23.7031 L12.6096,23.2758 C12.6076,23.2657 12.601,23.2593 12.5935,23.2578 Z M12.8584,23.1453 L12.8445,23.1473 L12.6598,23.2397 L12.6499,23.2499 L12.6472,23.2611 L12.6651,23.6906 L12.6699,23.7034 L12.6784,23.7105 L12.8793,23.8032 C12.8914,23.8069 12.9022,23.803 12.9078,23.7952 L12.9118,23.7812 L12.8777,23.1665 C12.8753,23.1546 12.8674,23.147 12.8584,23.1453 Z M12.143,23.1473 C12.1332,23.1424 12.1222,23.1453 12.1156,23.1526 L12.1099,23.1665 L12.0758,23.7812 C12.0751,23.7927 12.0828,23.8019 12.0926,23.8046 L12.1083,23.8032 L12.3092,23.7105 L12.3186,23.7024 L12.3225,23.6906 L12.3404,23.2611 L12.3372,23.2485 L12.3278,23.2397 L12.143,23.1473 Z" id="MingCute"></path>
                <path d="M12.496,12.6319 C12.9755,12.9059 13.1421,13.5168 12.8681,13.9963 L11.7231,16.0002 L12.8276,16.0002 C13.6722,16.0002 14.2017,16.9126 13.7826,17.6459 L11.8681,20.9963 C11.5941,21.4758 10.9833,21.6424 10.5037,21.3684 C10.0242,21.0944 9.85763,20.4835 10.1316,20.004 L11.2767,18.0002 L10.1722,18.0002 C9.32759,18.0002 8.79809,17.0877 9.21713,16.3544 L11.1316,13.004 C11.4056,12.5245 12.0165,12.3579 12.496,12.6319 Z M14.9987,18.5007 C15.1416,17.9672 15.69,17.6506 16.2234,17.7936 C16.7569,17.9365 17.0735,18.4849 16.9305,19.0183 L16.6717,19.9842 C16.5288,20.5177 15.9804,20.8343 15.447,20.6914 C14.9135,20.5484 14.5969,20.0001 14.7399,19.4666 L14.9987,18.5007 Z M5.21868,18.5007 C5.36162,17.9672 5.90996,17.6506 6.44342,17.7936 C6.97689,17.9365 7.29347,18.4849 7.15053,19.0183 L6.89171,19.9843 C6.74877,20.5177 6.20043,20.8343 5.66697,20.6914 C5.1335,20.5484 4.81692,20.0001 4.95986,19.4666 L5.21868,18.5007 Z M11.5,2 C14.2856,2 16.66,3.75154 17.5856,6.21198 C20.13,6.90766 22,9.23462 22,12 C22,13.9686 21.0519,15.7158 19.5874,16.8099 L19.6143125,16.724625 L19.8977,15.6721 C20.3265,14.0717 19.3768,12.4267 17.7764,11.9979 C16.7165,11.7139 15.6371,12.0345 14.9043,12.7484 C14.7086,11.9925 14.2198,11.3133 13.4884,10.8953 C12.0498,10.0733 10.2172,10.5731 9.39522,12.0116 L9.08877,12.5479 C8.77583,12.2985 8.4076,12.1081 7.99641,11.9979 C6.39601,11.5691 4.751,12.5188 4.32217,14.1192 L4.06335,15.0851 C3.92193,15.6129 3.93044,16.1456 4.0628,16.6379 C3.98636,16.7142 3.91382,16.7949 3.84563,16.8796 C2.7194,15.9628 2,14.5654 2,13 C2,10.9486 3.23468,9.18749 5.00053,8.41614 C5.04543,4.86494 7.93814,2 11.5,2 Z M17.2587,13.9299 C17.7922,14.0728 18.1087,14.6212 17.9658,15.1546 L17.707,16.1205 C17.564,16.654 17.0157,16.9706 16.4822,16.8277 C15.9488,16.6847 15.6322,16.1364 15.7751,15.6029 L16.034,14.637 C16.1769,14.1035 16.7252,13.7869 17.2587,13.9299 Z M7.4787,13.9299 C8.01217,14.0728 8.32875,14.6212 8.18581,15.1546 L7.92699,16.1206 C7.78405,16.654 7.23571,16.9706 6.70224,16.8277 C6.16878,16.6847 5.85219,16.1364 5.99514,15.6029 L6.25395,14.637 C6.3969,14.1035 6.94523,13.7869 7.4787,13.9299 Z" id="形状" fill="#09244B"></path>
            </g>
        </g>
    </g>
</svg>

<svg xmlns="http://www.w3.org/2000/svg" width="24" height="24"><g fill="none" fill-rule="nonzero"><path d="M24 0v24H0V0h24ZM12.594 23.258l-.012.002-.071.035-.02.004-.014-.004-.071-.036c-.01-.003-.019 0-.024.006l-.004.01-.017.428.005.02.01.013.104.074.015.004.012-.004.104-.074.012-.016.004-.017-.017-.427c-.002-.01-.009-.017-.016-.018Zm.264-.113-.014.002-.184.093-.01.01-.003.011.018.43.005.012.008.008.201.092c.012.004.023 0 .029-.008l.004-.014-.034-.614c-.003-.012-.01-.02-.02-.022Zm-.715.002a.023.023 0 0 0-.027.006l-.006.014-.034.614c0 .012.007.02.017.024l.015-.002.201-.093.01-.008.003-.011.018-.43-.003-.012-.01-.01-.184-.092Z"/><path fill="#09244B" d="M12.496 12.632a1 1 0 0 1 .372 1.364L11.723 16h1.105a1.1 1.1 0 0 1 .955 1.646l-1.915 3.35a1 1 0 0 1-1.736-.992L11.277 18h-1.105a1.1 1.1 0 0 1-.955-1.646l1.915-3.35a1 1 0 0 1 1.364-.372Zm2.503 5.869a1 1 0 1 1 1.931.517l-.258.966a1 1 0 1 1-1.932-.517l.259-.966Zm-9.78 0a1 1 0 1 1 1.932.517l-.26.966a1 1 0 0 1-1.931-.517l.259-.966ZM11.5 2a6.502 6.502 0 0 1 6.086 4.212 6.002 6.002 0 0 1 2.001 10.598l.027-.085.284-1.053a3 3 0 0 0-4.994-2.924 3 3 0 0 0-5.51-.737l-.305.537a3 3 0 0 0-4.767 1.571l-.259.966a2.986 2.986 0 0 0 0 1.553 2.997 2.997 0 0 0-.217.242A5 5 0 0 1 5 8.417 6.5 6.5 0 0 1 11.5 2Zm5.759 11.93a1 1 0 0 1 .707 1.225l-.259.966a1 1 0 0 1-1.932-.518l.259-.966a1 1 0 0 1 1.225-.707Zm-9.78 0a1 1 0 0 1 .707 1.225l-.259.966a1 1 0 0 1-1.932-.518l.259-.966a1 1 0 0 1 1.225-.707Z"/></g></svg>
